X: 26954
T: Miss Cassidy's
R: reel
M: 4/4
K: Dmajor
|:G3 A GEDE|GBdg egdB|G3 A GEDE|GABG E2DE:|
GBdg egdB|GABG A2GE|GBdg egdB|GABG E2DE|
GBdg egdB|GABG A2 AB|d4B4|ABAG E2DE|

